raw/symbols/kda.svg

<svg width="42" height="42" viewBox="0 0 42 42" fill="none" xmlns="http://www.w3.org/2000/svg">
<circle cx="21" cy="21" r="20" fill="#F3F3F3"/>
<path d="M22.0213 17.9111L22.6483 18.7251C22.6483 18.7251 26.4213 24.2669 28.3111 27.0334C29.6146 28.9529 30.9181 30.8724 32.2238 32.7908C32.3239 32.9283 32.4163 33.0713 32.4999 33.2187C30.1767 33.2286 27.8535 33.2231 25.5314 33.2209C23.2192 29.7889 18.6289 22.9018 18.6289 22.9018L18.2329 22.1802" fill="url(#paint0_linear_7674_310964)"/>
<path d="M16.594 25.011C16.5082 25.0792 16.5148 25.1925 16.5148 25.2915L16.4213 25.6039L15.9692 18.3362L16.5225 17.7444C16.6644 17.6476 22.1589 11.8396 24.8033 9.07418C24.866 8.98618 24.9793 9.01258 25.0717 9.00488C27.3729 9.01258 31.9742 9.01038 31.9742 9.01038C31.9742 9.01038 17.2639 24.3004 16.594 25.011Z" fill="url(#paint1_linear_7674_310964)"/>
<path d="M10.5 9.01172H16.5214V33.2128H10.5V9.01172Z" fill="#69009A"/>
<defs>
<linearGradient id="paint0_linear_7674_310964" x1="20.3051" y1="20.5528" x2="25.8853" y2="28.5461" gradientUnits="userSpaceOnUse">
<stop stop-color="#EA078C"/>
<stop offset="1" stop-color="#69009A"/>
</linearGradient>
<linearGradient id="paint1_linear_7674_310964" x1="15.5012" y1="20.4734" x2="26.8502" y2="13.4981" gradientUnits="userSpaceOnUse">
<stop stop-color="#EA078C"/>
<stop offset="1" stop-color="#69009A"/>
</linearGradient>
</defs>
</svg>

<svg xmlns="http://www.w3.org/2000/svg" width="42" height="42" fill="none"><circle cx="21" cy="21" r="20" fill="#F3F3F3"/><path fill="url(#a)" d="m22.021 17.911.627.814s3.773 5.542 5.663 8.308c1.304 1.92 2.607 3.84 3.913 5.758.1.137.192.28.276.428-2.323.01-4.646.004-6.969.002C23.22 29.789 18.63 22.9 18.63 22.9l-.396-.72"/><path fill="url(#b)" d="M16.594 25.011c-.086.068-.08.181-.08.28l-.093.313-.452-7.268.554-.592c.141-.096 5.636-5.904 8.28-8.67.063-.088.176-.061.269-.07 2.3.009 6.902.006 6.902.006s-14.71 15.29-15.38 16.001Z"/><path fill="#69009A" d="M10.5 9.012h6.021v24.2H10.5v-24.2Z"/><defs><linearGradient id="a" x1="20.305" x2="25.885" y1="20.553" y2="28.546" gradientUnits="userSpaceOnUse"><stop stop-color="#EA078C"/><stop offset="1" stop-color="#69009A"/></linearGradient><linearGradient id="b" x1="15.501" x2="26.85" y1="20.473" y2="13.498" gradientUnits="userSpaceOnUse"><stop stop-color="#EA078C"/><stop offset="1" stop-color="#69009A"/></linearGradient></defs></svg>
